Origami/16x16/apps/yast-scripts.svg

<svg width="16px" height="16px" version="1.1" viewBox="0 0 16 16" xmlns="http://www.w3.org/2000/svg">
 <path d="M 2.75,1 C 2.33276,1 2,1.33276 2,1.75 l 0,13.5 C 2,15.667192 2.332808,16 2.75,16 l 10.5,0 C 13.6676,16 14,15.6676 14,15.25 L 14,6 9.875,5.125 9,1 Z" style="fill:#4d4d4d"/>
 <path d="M 9,1 9,5.1666667 C 9,5.6250667 9.3749333,6 9.833333,6 L 14,6 Z" style="fill:#6c6c6c"/>
 <path d="m6 7v1h-0.5c-0.8309999 0-1.5 0.669-1.5 1.5s0.6690001 1.5 1.5 1.5h0.5v1h-1.9082031c0.206 0.58192 0.7539632 1 1.4082031 1h0.5v1h1v-1h0.5c0.831 0 1.5-0.669 1.5-1.5s-0.669-1.5-1.5-1.5h-0.5v-1h1.9082031c-0.206-0.58192-0.7539631-1-1.4082031-1h-0.5v-1h-1zm-0.5 2h0.5v1h-0.5c-0.2769998 0-0.5-0.223-0.5-0.5s0.2230001-0.5 0.5-0.5zm1.5 2h0.5c0.2770001 0 0.5 0.223 0.5 0.5s-0.2232999 0.51287-0.5 0.5h-0.5v-1zm2 2v1h4v-1h-4z" style="fill:#ffffff"/>
</svg>

<?xml version="1.0" encoding="UTF-8" standalone="no"?>
<svg
   xmlns:dc="http://purl.org/dc/elements/1.1/"
   xmlns:cc="http://creativecommons.org/ns#"
   xmlns:rdf="http://www.w3.org/1999/02/22-rdf-syntax-ns#"
   xmlns:svg="http://www.w3.org/2000/svg"
   xmlns="http://www.w3.org/2000/svg"
   id="svg2"
   height="16px"
   width="16px"
   version="1.1"
   viewBox="0 0 16 16">
  <defs
     id="defs12" />
  <metadata
     id="metadata19">
    <rdf:RDF>
      <cc:Work
         rdf:about="">
        <dc:format>image/svg+xml</dc:format>
        <dc:type
           rdf:resource="http://purl.org/dc/dcmitype/StillImage" />
        <dc:title />
      </cc:Work>
    </rdf:RDF>
  </metadata>
  <path
     style="fill:#4d4d4d;fill-opacity:1"
     d="M 2.75,1 C 2.33276,1 2,1.33276 2,1.75 l 0,13.5 C 2,15.667192 2.332808,16 2.75,16 l 10.5,0 C 13.6676,16 14,15.6676 14,15.25 L 14,6 9.875,5.125 9,1 Z"
     id="path5" />
  <path
     style="fill:#6c6c6c;fill-opacity:1"
     d="M 9,1 9,5.1666667 C 9,5.6250667 9.3749333,6 9.833333,6 L 14,6 Z"
     id="path7" />
  <path
     style="color:#bebebe;display:inline;overflow:visible;visibility:visible;fill:#ffffff;fill-opacity:1;fill-rule:nonzero;stroke:none;stroke-width:2;marker:none;enable-background:accumulate"
     d="M 6,7 6,8 5.5,8 C 4.6690001,8 4,8.669 4,9.5 4,10.331 4.6690001,11 5.5,11 l 0.5,0 0,1 -0.5,0 -1.4082031,0 c 0.206,0.58192 0.7539632,1 1.4082031,1 l 0.5,0 0,1 1,0 0,-1 0.5,0 C 8.331,13 9,12.331 9,11.5 9,10.669 8.331,10 7.5,10 L 7,10 7,9 7.5,9 8.9082031,9 C 8.7022031,8.41808 8.15424,8 7.5,8 L 7,8 7,7 6,7 Z M 5.5,9 6,9 6,10 5.5,10 C 5.2230002,10 5,9.777 5,9.5 5,9.223 5.2230001,9 5.5,9 Z M 7,11 7.5,11 C 7.7770001,11 8,11.223 8,11.5 8,11.777 7.7767001,12.01287 7.5,12 L 7,12 7,11 Z m 2,2 0,1 4,0 0,-1 -4,0 z"
     id="path4169" />
</svg>
